X: 101847
T: John Egan's #1
S: "Treoir" 34/2
N: John Egan (1903-1989), flute player from Sligo
L: 1/8
M: 4/4
R: reel
K: D
A|B2 GB EBGB | A2 FA DAFA | B2 GB EFGA | (3Bcd ef gfed |
B2 GB EBGB | A2 FA DAFA | BAGF EFGA | (3Bcd ed Bdef ||
g2 fa gfed | B2 BA Bdef | g2 af gfed | B2 Ac Bdef |
g2 fa gfed | B2 AB G3F | EDEF G2 GA | (3Bcd ef gfed |]
